src/pos-icons/account-tie.svg

<svg height="24" viewBox="0 0 24 24" width="24" xmlns="http://www.w3.org/2000/svg"><path d="m12 3a4 4 0 0 1 4 4 4 4 0 0 1 -4 4 4 4 0 0 1 -4-4 4 4 0 0 1 4-4m4 10.54c0 1.06-.28 3.53-2.19 6.29l-.81-4.83.94-1.88c-.62-.07-1.27-.12-1.94-.12s-1.32.05-1.94.12l.94 1.88-.81 4.83c-1.91-2.76-2.19-5.23-2.19-6.29-2.39.7-4 1.96-4 3.46v4h6 1.09 1.82 1.09 6v-4c0-1.5-1.6-2.76-4-3.46z"/></svg>

<?xml version="1.0" encoding="UTF-8"?><!DOCTYPE svg PUBLIC "-//W3C//DTD SVG 1.1//EN" "http://www.w3.org/Graphics/SVG/1.1/DTD/svg11.dtd"><svg xmlns="http://www.w3.org/2000/svg" xmlns:xlink="http://www.w3.org/1999/xlink" version="1.1" id="mdi-account-tie" width="24" height="24" viewBox="0 0 24 24"><path d="M12,3A4,4 0 0,1 16,7A4,4 0 0,1 12,11A4,4 0 0,1 8,7A4,4 0 0,1 12,3M16,13.54C16,14.6 15.72,17.07 13.81,19.83L13,15L13.94,13.12C13.32,13.05 12.67,13 12,13C11.33,13 10.68,13.05 10.06,13.12L11,15L10.19,19.83C8.28,17.07 8,14.6 8,13.54C5.61,14.24 4,15.5 4,17V21H10L11.09,21H12.91L14,21H20V17C20,15.5 18.4,14.24 16,13.54Z" /></svg>
